source/img/icon-facebook.svg

<svg version="1.0" id="Layer_1" xmlns="http://www.w3.org/2000/svg" xmlns:xlink="http://www.w3.org/1999/xlink" x="0px" y="0px" width="8.672px" height="18.944px" viewBox="0 0 8.672 18.944" enable-background="new 0 0 8.672 18.944" xml:space="preserve">
  <path d="M6.275,3.356c0.799,0,1.599,0,2.398,0c0-1.119,0-2.237,0-3.356c-0.959,0-1.92,0-2.878,0C2.656,0.181,1.54,2.387,1.948,6.114 H0v3.518h1.959c0,3.104,0,6.208,0,9.312c1.279,0,2.559,0,3.837,0c0-3.104,0-6.208,0-9.312h2.857V6.114H5.787 C5.765,5.069,5.75,3.709,6.275,3.356z"/>
</svg>

<?xml version="1.0" encoding="UTF-8"?>
<svg width="9px" height="19px" viewBox="0 0 9 19" version="1.1" xmlns="http://www.w3.org/2000/svg" xmlns:xlink="http://www.w3.org/1999/xlink">
    <!-- Generator: Sketch 58 (84663) - https://sketch.com -->
    <title>icon-facebook</title>
    <desc>Created with Sketch.</desc>
    <g id="Page-1" stroke="none" stroke-width="1" fill="none" fill-rule="evenodd">
        <g id="icon-facebook" fill="#FFFFFF" fill-rule="nonzero">
            <path d="M6.275,3.356 C7.074,3.356 7.874,3.356 8.673,3.356 C8.673,2.237 8.673,1.119 8.673,0 C7.714,0 6.753,0 5.795,0 C2.656,0.181 1.54,2.387 1.948,6.114 L0,6.114 L0,9.632 L1.959,9.632 C1.959,12.736 1.959,15.84 1.959,18.944 C3.238,18.944 4.518,18.944 5.796,18.944 C5.796,15.84 5.796,12.736 5.796,9.632 L8.653,9.632 L8.653,6.114 L5.787,6.114 C5.765,5.069 5.75,3.709 6.275,3.356 Z" id="Path"></path>
        </g>
    </g>
</svg>
